X:953
T:Bessy Murphy
N:"Collected by Ennis"
B:O'Neill's 953
Z:Transcribed by Dan G. Petersen, dangp@post6.tele.dk
M:6/8
L:1/8
K:D
(A/G/)|F2G ABc|ded cAG|FGA cAG|FGA A2G|
F2G ABc|ded cAG|FDF GAG|FDF G2:|
g|fed cde|fed cAG|FGA cAG|FGA A2g|
fed cde|fed cAG|FDF GAG|FDF G2:|


